X:1
T:Belleville, LM
T:Belleville, LM
T:Peter Christian Lutkin (1858-1931)
T:Public Domain Courtesy of the Cyber Hymnal™
C:Peter Christian Lutkin (1858-1931)
Z:Public Domain
Z:Courtesy of the Cyber Hymnal™
%%score ( 1 2 ) ( 3 4 )
L:1/8
M:3/2
K:Ab
V:1 treble 
V:2 treble 
V:3 bass 
V:4 bass 
V:1
 [CE]4 [CE]2 [CE]2 [CE]2 [CE]2 | [DF]3 [DE] [DE]6 [DE]2 | [CE]6 [Ec]2 [=DB]2 [DA]2 | %3
 [EA]3 [EG] [EG]4 [EG]4 | [EA]6 [EB]2 [Ec]2 [Ee]2 | [Ae]3 [Ad] [Ad]2 [Dd]2 [Fc]2 [FB]2 | A8 E4 | %7
 [DE]3 [CE] [CE]8 |] %8
V:2
 x12 | x12 | x12 | x12 | x12 | x12 | (C4 D4) E4 | x12 |] %8
V:3
 [A,,A,]4 [A,,A,]2 [C,A,]2 [E,A,]2 A,2 | [A,B,]3 [G,B,] [G,B,]6 [G,B,]2 | A,6 A,2 [F,A,]2 [F,B,]2 | %3
 [E,C]3 [E,B,] [E,B,]4 [D,B,]4 | [C,A,]6 [E,G,]2 A,2 [_G,C]2 | %5
 [F,C]3 [F,D] [F,D]2 [F,A,]2 [E,=A,]2 [D,F,]2 | (A,4 B,4) [E,C]4 | [E,B,]3 [A,,A,] [A,,A,]8 |] %8
V:4
 x10 A,2 | x12 | A,6 A,2 x4 | x12 | x8 A,2 x2 | x12 | E,8 x4 | x12 |] %8

